svg/view_dashboard_variant_outline.svg

<svg xmlns="http://www.w3.org/2000/svg" viewBox="0 0 24 24"><path d="M2 5v14h20V5zm18 7h-4V7h4zm-6-2h-4V7h4zm-4 2h4v5h-4zM4 7h4v10H4zm12 10v-3h4v3z"/></svg>

<?xml version="1.0" encoding="UTF-8"?><!DOCTYPE svg PUBLIC "-//W3C//DTD SVG 1.1//EN" "http://www.w3.org/Graphics/SVG/1.1/DTD/svg11.dtd"><svg xmlns="http://www.w3.org/2000/svg" xmlns:xlink="http://www.w3.org/1999/xlink" version="1.1" id="mdi-view-dashboard-variant-outline" width="24" height="24" viewBox="0 0 24 24"><path d="M2 5V19H22V5H2M20 12H16V7H20V12M14 10H10V7H14V10M10 12H14V17H10V12M4 7H8V17H4V7M16 17V14H20V17H16Z" /></svg>
